X:1
T: Graf und Nonne (Die Nonne)
N: Q0155
O: Mitteleuropa, Deutschland
R: Ballade, Standesunterschied, vergebliche Werbung, Liebe, Klage
M: 6/8
L: 1/8
K: C
G | C2D_E2F | G2GF2
G | _A2GF_EF | G3-G2
G | G_A_BBAG | G2FF2
F | _EFGGFE | _E2DD2
G | GF_EDCB, | C3-C2

@@@ Tune index: 1711
